X:6
T:Devenez ce que vous recevez
C:Communaut du Verbe de Vie
M:2/4
L:1/4
%%staves {1 2 3 4}
K:Am
V:1
AE |A>A |A/A/ A/G/ |F2- |FF/F/ |E>E |DC |E2- |E2|
V:2
CD |E>E |F/E/ D/E/ |D2- |DD/D/ |C>C |B,C |C2 |B,2|
V:3
A,A, |A,>A,|C/C/ A,/A,/ |A,2-|A,A,/A,/|A,>A,|A,A,|A,2 |^G,2|
V:4
A,,B,,|C,>C,|A,,/A,,/ B,,/C,/|D,2-|D,D,/D,/|E,>E,|F,F,|E,2-|E,2|
V:1
AE |A>A |A/A/ A/G/ |F2- |FF |EE/E/ |AG |A2|]
V:2
CD |E>E |F/E/ D/E/ |D2- |DD |CC/C/ |DD |E2|]
V:3
A,A, |A,>A,|C/C/ A,/A,/ |A,2-|A,A,|A,A,/A,/|A,B, |C2|]
V:4
A,,B,,|C,>C,|A,,/A,,/ B,,/C,/|D,2-|D,D,|E,E,/E,/|F,E,|A,,2|]
V:1
A/B/|cB/A/|GF|A2|G/G/ G/G/|G2|GF|E2-|
V:2
C/D/|EG/F/|EC|F2|D/C/ B,/C/|D2|DD|C2-|
V:3
C/B,/|A,G,/G,/|G,A,|A,2|B,/A,/ G,/G,/|G,2|G,G,|G,2-|
V:4
A,,/A,,/|A,,B,,/B,,/|C,F,/E,/|D,2|G,,/G,,/ G,,/A,,/|B,,2|B,,B,,|C,2-|
V:1
EE/E/|DD/D/|FF|A2|A/A/ A/A/|B2|GF|A2|A2|]
V:2
CC/C/|A,A,/A,/|B,B,|E2|E/E/ E/E/|F2|EF|E2|E2|]
V:3
G,G,/G,/|F,F,/F,/|A,A,|C2|C/C/ C/C/|D2|B,B,|C2|C2|]
V:4
C,C,/C,/|D,D,/D,/|D,D,|A,,2|A,/A,/ A,/A,/|D,2|E,D,|A,,2|A,,2|]
